!!!OTL: Siji xiaochang
!!!ARE: Asia, China,ÿShandong Pingdu
!! III, 351
!!!SCT: C1772
!!!YEM: Copyright 1995, estate of Helmut Schaffrath.
**kern
*ICvox
*Ivox
*M2/4
*k[f#]
*G:
{8g
16g
16e
16dd
16ee
16dd
16b
=1
2a}
=2
{8b
16b
16a
16b
16a
16b
16dd
=3
4.g}
{8e
=4
8.b
16dd
8b
8e
=5
8.dd
16b
8a
8g
=6
8a
16a
16e
8a
16g
16e
=7
2d}
=8
{8a
16a
16f#
8e
8g
=9
8.a
16dd
4f#}
=10
{8.b
16dd
8b
8a
=11
8a
8f#
4e}
=12
{8b
8e
8b
8dd
=13
8a
8e
4g}
=14
{8a
8f#
16e
16d
8e
=15
2d}
=16
{8.b
16gg
8ee
8dd
=17
8dd
8dd
4g}
=18
{8b
8e
8b
8dd
=19
8a
8e
4g}
=20
{8a
8f#
16e
16d
8e
=21
2dd}
==
!!!AGN: Xiaodiao, Siji ge
!!!AMT: simple duple
!!!AIN: vox
!!!EED: Helmut Schaffrath
!!!EEV: 1.0
*-
